Numix-Light/16/status/indicator-keyboard-He-1.svg

<?xml version="1.0" encoding="UTF-8" standalone="no"?>
<svg
   xmlns:dc="http://purl.org/dc/elements/1.1/"
   xmlns:cc="http://creativecommons.org/ns#"
   xmlns:rdf="http://www.w3.org/1999/02/22-rdf-syntax-ns#"
   xmlns:svg="http://www.w3.org/2000/svg"
   xmlns="http://www.w3.org/2000/svg"
   xmlns:sodipodi="http://sodipodi.sourceforge.net/DTD/sodipodi-0.dtd"
   xmlns:inkscape="http://www.inkscape.org/namespaces/inkscape"
   viewBox="0 0 16 16"
   id="svg2"
   version="1.1"
   inkscape:version="0.91 r13725"
   sodipodi:docname="indicator-keyboard-He-1.svg">
  <metadata
     id="metadata14">
    <rdf:RDF>
      <cc:Work
         rdf:about="">
        <dc:format>image/svg+xml</dc:format>
        <dc:type
           rdf:resource="http://purl.org/dc/dcmitype/StillImage" />
      </cc:Work>
    </rdf:RDF>
  </metadata>
  <defs
     id="defs12" />
  <sodipodi:namedview
     pagecolor="#ffffff"
     bordercolor="#666666"
     borderopacity="1"
     objecttolerance="10"
     gridtolerance="10"
     guidetolerance="10"
     inkscape:pageopacity="0"
     inkscape:pageshadow="2"
     inkscape:window-width="640"
     inkscape:window-height="480"
     id="namedview10"
     showgrid="false"
     inkscape:zoom="14.75"
     inkscape:cx="8"
     inkscape:cy="8"
     inkscape:window-x="65"
     inkscape:window-y="24"
     inkscape:window-maximized="0"
     inkscape:current-layer="svg2" />
  <path
     style="fill:#353535;fill-opacity:1"
     d="M 1.5996094 0 C 0.71320937 2.9605947e-16 0 0.71320937 0 1.5996094 L 0 14.400391 C 2.9605947e-16 15.286791 0.71320937 16 1.5996094 16 L 14.400391 16 C 15.286791 16 16 15.286791 16 14.400391 L 16 1.5996094 C 16 0.71320937 15.286791 0 14.400391 0 L 1.5996094 0 z M 1.7910156 4.859375 L 2.4042969 4.859375 L 2.4042969 7.5683594 L 5.7871094 7.5683594 L 5.7871094 4.859375 L 6.4003906 4.859375 L 6.4003906 11.095703 L 5.7871094 11.095703 L 5.7871094 8.0996094 L 2.4042969 8.0996094 L 2.4042969 11.095703 L 1.7910156 11.095703 L 1.7910156 4.859375 z M 9.7324219 6.3359375 C 10.302422 6.3359375 10.755797 6.5205781 11.091797 6.8925781 C 11.433797 7.2645781 11.605469 7.8373281 11.605469 8.6113281 C 11.605469 8.6593281 11.601703 8.7078594 11.595703 8.7558594 C 11.595703 8.8038594 11.593891 8.848625 11.587891 8.890625 L 8.3203125 8.890625 C 8.3383125 9.460625 8.4781875 9.8990779 8.7421875 10.205078 C 9.0061875 10.511078 9.4279065 10.664062 10.003906 10.664062 C 10.321906 10.664062 10.573766 10.634219 10.759766 10.574219 C 10.945766 10.514219 11.080062 10.463875 11.164062 10.421875 L 11.271484 10.925781 C 11.187484 10.973781 11.028922 11.029703 10.794922 11.095703 C 10.566922 11.161703 10.296375 11.195312 9.984375 11.195312 C 9.576375 11.195312 9.2294063 11.135625 8.9414062 11.015625 C 8.6534062 10.895625 8.4164687 10.727719 8.2304688 10.511719 C 8.0444687 10.295719 7.9082187 10.040094 7.8242188 9.7460938 C 7.7402188 9.4460938 7.6992187 9.119625 7.6992188 8.765625 C 7.6992188 8.357625 7.7551406 8.003125 7.8691406 7.703125 C 7.9891406 7.397125 8.142125 7.1415 8.328125 6.9375 C 8.520125 6.7335 8.7365625 6.5842812 8.9765625 6.4882812 C 9.2225625 6.3862812 9.4744219 6.3359375 9.7324219 6.3359375 z M 9.7421875 6.8574219 C 9.5321875 6.8574219 9.3437812 6.8984219 9.1757812 6.9824219 C 9.0137813 7.0664219 8.8681875 7.1802188 8.7421875 7.3242188 C 8.6221875 7.4622187 8.5270781 7.6245469 8.4550781 7.8105469 C 8.3890781 7.9965469 8.3498906 8.1924844 8.3378906 8.3964844 L 11.001953 8.3964844 C 10.989953 7.9104844 10.876156 7.5317187 10.660156 7.2617188 C 10.444156 6.9917187 10.138187 6.8574219 9.7421875 6.8574219 z M 13.939453 8.8417969 L 14.208984 8.8417969 L 14.208984 12.896484 L 13.828125 12.896484 L 13.828125 9.421875 C 13.785225 9.468675 13.728403 9.5157063 13.658203 9.5664062 C 13.591903 9.6171063 13.515488 9.66805 13.429688 9.71875 C 13.343888 9.76555 13.255709 9.812575 13.162109 9.859375 C 13.068509 9.902275 12.974459 9.9375437 12.880859 9.9648438 L 12.769531 9.671875 C 13.003531 9.5899751 13.211231 9.4880813 13.394531 9.3632812 C 13.577831 9.2345813 13.760053 9.0601969 13.939453 8.8417969 z "
     id="path4" />
</svg>

<svg xmlns="http://www.w3.org/2000/svg" viewBox="0 0 16 16">
 <path d="m 1.6 0 c -0.886 0 -1.6 0.713 -1.6 1.6 l 0 12.801 c 0 0.886 0.713 1.6 1.6 1.6 l 12.801 0 c 0.886 0 1.6 -0.713 1.6 -1.6 l 0 -12.801 c 0 -0.886 -0.713 -1.6 -1.6 -1.6 l -12.801 0 z m 0.191 4.859 l 0.613 0 l 0 2.709 l 3.383 0 l 0 -2.709 l 0.613 0 l 0 6.236 l -0.613 0 l 0 -2.996 l -3.383 0 l 0 2.996 l -0.613 0 l 0 -6.236 z m 7.941 1.477 c 0.57 0 1.023 0.185 1.359 0.557 c 0.342 0.372 0.514 0.945 0.514 1.719 c 0 0.048 -0.004 0.097 -0.01 0.145 c 0 0.048 -0.002 0.093 -0.008 0.135 l -3.268 0 c 0.018 0.57 0.158 1.01 0.422 1.314 c 0.264 0.306 0.686 0.459 1.262 0.459 c 0.318 0 0.57 -0.03 0.756 -0.09 c 0.186 -0.06 0.32 -0.11 0.404 -0.152 l 0.107 0.504 c -0.084 0.048 -0.243 0.104 -0.477 0.17 c -0.228 0.066 -0.499 0.1 -0.811 0.1 c -0.408 0 -0.755 -0.06 -1.043 -0.18 c -0.288 -0.12 -0.525 -0.288 -0.711 -0.504 c -0.186 -0.216 -0.322 -0.472 -0.406 -0.766 c -0.084 -0.3 -0.125 -0.626 -0.125 -0.98 c 0 -0.408 0.056 -0.762 0.17 -1.063 c 0.12 -0.306 0.273 -0.562 0.459 -0.766 c 0.192 -0.204 0.408 -0.353 0.648 -0.449 c 0.246 -0.102 0.498 -0.152 0.756 -0.152 z m 0.01 0.521 c -0.21 0 -0.398 0.041 -0.566 0.125 c -0.162 0.084 -0.308 0.198 -0.434 0.342 c -0.12 0.138 -0.215 0.3 -0.287 0.486 c -0.066 0.186 -0.105 0.382 -0.117 0.586 l 2.664 0 c -0.012 -0.486 -0.126 -0.865 -0.342 -1.135 c -0.216 -0.27 -0.522 -0.404 -0.918 -0.404 z m 4.197 1.984 l 0.27 0 l 0 4.055 l -0.381 0 l 0 -3.475 c -0.043 0.047 -0.1 0.094 -0.17 0.145 c -0.066 0.051 -0.143 0.102 -0.229 0.152 c -0.086 0.047 -0.174 0.094 -0.268 0.141 c -0.094 0.043 -0.188 0.078 -0.281 0.105 l -0.111 -0.293 c 0.234 -0.082 0.442 -0.184 0.625 -0.309 c 0.183 -0.129 0.366 -0.303 0.545 -0.521 z" style="fill:#353535;fill-opacity:1"/>
</svg>
